;FLAVOR:Marlin
M117 Time Left 3h24m02s
;TIME:12242
;Filament used: 5.16738m
;Layer height: 0.2
;MINX:18.8
;MINY:18.8
;MINZ:0.2
;MAXX:201.2
;MAXY:201.2
;MAXZ:0.6
;POSTPROCESSED
;Generated with Cura_SteamEngine 4.9.1
M140 S60
M105
M190 S60
M104 S200
M105
M109 S200
M82 ;absolute extrusion mode
; Ender 3 Custom Start G-code
G92 E0 ; Reset Extruder
G28 ; Home all axes
G1 Z2.0 F3000 ; Move Z Axis up little to prevent scratching of Heat Bed
G1 X0.1 Y20 Z0.3 F5000.0 ; Move to start position
G1 X0.1 Y200.0 Z0.3 F1500.0 E15 ; Draw the first line
G1 X0.4 Y200.0 Z0.3 F5000.0 ; Move to side a little
G1 X0.4 Y20 Z0.3 F1500.0 E30 ; Draw the second line
G92 E0 ; Reset Extruder
G1 Z2.0 F3000 ; Move Z Axis up little to prevent scratching of Heat Bed
G1 X5 Y20 Z0.3 F5000.0 ; Move over to prevent blob squish
G92 E0
G92 E0
G1 F1500 E-6.5
;LAYER_COUNT:3
;LAYER:0
M107
G0 F6000 X21.998 Y22.064 Z0.2
;TYPE:SKIRT
G1 F1500 E0
G1 F1200 X22.686 Y21.427 E0.03119
G1 X23.426 Y20.851 E0.06237
G1 X24.212 Y20.339 E0.09357
G1 X25.039 Y19.897 E0.12476
G1 X25.901 Y19.527 E0.15596
G1 X26.791 Y19.231 E0.18716
G1 X27.703 Y19.013 E0.21835
G1 X28.63 Y18.872 E0.24953
G1 X29.501 Y18.813 E0.27857
G1 X29.822 Y18.804 E0.28925
G1 X30.13 Y18.8 E0.29949
G1 X189.493 Y18.8 E5.59993
G1 X190.349 Y18.811 E5.6284
G1 X191.285 Y18.865 E5.65959
G1 X192.213 Y18.997 E5.69076
G1 X193.127 Y19.209 E5.72197
G1 X194.019 Y19.498 E5.75315
G1 X194.884 Y19.861 E5.78436
G1 X195.714 Y20.297 E5.81554
G1 X196.505 Y20.802 E5.84675
G1 X197.249 Y21.373 E5.87794
G1 X197.942 Y22.005 E5.90914
G1 X198.579 Y22.693 E5.94033
G1 X199.154 Y23.434 E5.97152
G1 X199.665 Y24.22 E6.0027
G1 X200.107 Y25.048 E6.03392
G1 X200.476 Y25.91 E6.06511
G1 X200.771 Y26.8 E6.09629
G1 X200.989 Y27.712 E6.12748
G1 X201.129 Y28.64 E6.15869
G1 X201.187 Y29.501 E6.1874
G1 X201.196 Y29.821 E6.19804
G1 X201.2 Y30.13 E6.20832
G1 X201.199 Y189.6 E11.51232
G1 X201.19 Y190.327 E11.5365
G1 X201.139 Y191.264 E11.56771
G1 X201.007 Y192.192 E11.59888
G1 X200.798 Y193.106 E11.63007
G1 X200.511 Y193.999 E11.66127
G1 X200.149 Y194.865 E11.69248
G1 X199.715 Y195.696 E11.72367
G1 X199.211 Y196.487 E11.75486
G1 X198.642 Y197.232 E11.78604
G1 X198.011 Y197.927 E11.81726
G1 X197.324 Y198.565 E11.84845
G1 X196.585 Y199.142 E11.87963
G1 X195.799 Y199.654 E11.91083
G1 X194.973 Y200.097 E11.942
G1 X194.111 Y200.469 E11.97323
G1 X193.222 Y200.765 E12.00439
G1 X192.31 Y200.985 E12.0356
G1 X191.383 Y201.126 E12.06678
G1 X190.499 Y201.187 E12.09626
G1 X190.178 Y201.196 E12.10694
G1 X189.87 Y201.2 E12.11718
G1 X30.365 Y201.199 E17.42234
G1 X29.667 Y201.19 E17.44556
G1 X28.731 Y201.138 E17.47674
G1 X27.802 Y201.006 E17.50795
G1 X26.888 Y200.796 E17.53914
G1 X25.995 Y200.509 E17.57034
G1 X25.13 Y200.146 E17.60154
G1 X24.299 Y199.712 E17.63272
G1 X23.508 Y199.208 E17.66391
G1 X22.763 Y198.638 E17.69511
G1 X22.069 Y198.007 E17.72631
G1 X21.432 Y197.32 E17.75747
G1 X20.855 Y196.58 E17.78868
G1 X20.343 Y195.794 E17.81988
G1 X19.9 Y194.967 E17.85108
G1 X19.529 Y194.106 E17.88227
G1 X19.233 Y193.216 E17.91346
G1 X19.014 Y192.304 E17.94466
G1 X18.873 Y191.377 E17.97584
G1 X18.813 Y190.488 E18.00548
G1 X18.804 Y190.155 E18.01656
G1 X18.8 Y189.858 E18.02644
G1 X18.801 Y30.325 E23.33253
G1 X18.81 Y29.66 E23.35465
G1 X18.863 Y28.724 E23.38583
G1 X18.995 Y27.795 E23.41704
G1 X19.206 Y26.881 E23.44824
G1 X19.494 Y25.989 E23.47941
G1 X19.857 Y25.124 E23.51061
G1 X20.292 Y24.293 E23.54181
G1 X20.796 Y23.503 E23.57298
G1 X21.366 Y22.758 E23.60418
G1 X21.998 Y22.064 E23.6354
G0 F6000 X22.389 Y22.239
G1 F1200 X23.074 Y21.623 E23.66604
G1 X23.81 Y21.07 E23.69666
G1 X24.591 Y20.582 E23.72729
G1 X25.411 Y20.164 E23.7579
G1 X26.265 Y19.819 E23.78853
G1 X27.145 Y19.549 E23.81915
G1 X28.045 Y19.357 E23.84976
G1 X28.959 Y19.243 E23.88039
G1 X29.512 Y19.213 E23.89881
G1 X29.833 Y19.204 E23.90949
G1 X30.13 Y19.2 E23.91937
G1 X189.493 Y19.2 E29.21981
G1 X190.343 Y19.211 E29.24808
G1 X191.262 Y19.264 E29.2787
G1 X192.173 Y19.397 E29.30932
G1 X193.069 Y19.608 E29.33994
G1 X193.943 Y19.896 E29.37054
G1 X194.79 Y20.259 E29.40119
G1 X195.601 Y20.694 E29.4318
G1 X196.371 Y21.198 E29.46241
G1 X197.095 Y21.767 E29.49304
G1 X197.767 Y22.397 E29.52367
G1 X198.382 Y23.082 E29.55429
G1 X198.935 Y23.818 E29.58491
G1 X199.422 Y24.599 E29.61552
G1 X199.839 Y25.42 E29.64615
G1 X200.184 Y26.274 E29.67679
G1 X200.453 Y27.154 E29.70739
G1 X200.645 Y28.055 E29.73803
G1 X200.758 Y28.968 E29.76863
G1 X200.787 Y29.512 E29.78675
G1 X200.796 Y29.832 E29.7974
G1 X200.8 Y30.13 E29.80731
G1 X200.799 Y189.595 E35.11114
G1 X200.79 Y190.322 E35.13532
G1 X200.739 Y191.241 E35.16593
G1 X200.608 Y192.153 E35.19658
G1 X200.398 Y193.049 E35.22718
G1 X200.112 Y193.924 E35.2578
G1 X199.751 Y194.771 E35.28843
G1 X199.317 Y195.583 E35.31905
G1 X198.815 Y196.355 E35.34968
G1 X198.247 Y197.08 E35.38031
G1 X197.619 Y197.753 E35.41092
G1 X196.935 Y198.369 E35.44154
G1 X196.2 Y198.923 E35.47215
G1 X195.42 Y199.412 E35.50277
G1 X194.6 Y199.831 E35.5334
G1 X193.747 Y200.177 E35.56402
G1 X192.867 Y200.448 E35.59464
G1 X191.967 Y200.641 E35.62526
G1 X191.053 Y200.756 E35.6559
G1 X190.488 Y200.787 E35.67472
G1 X190.167 Y200.796 E35.6854
G1 X189.87 Y200.8 E35.69528
G1 X30.37 Y200.799 E41.00027
G1 X29.672 Y200.79 E41.02349
G1 X28.753 Y200.738 E41.0541
G1 X27.842 Y200.607 E41.08471
G1 X26.946 Y200.397 E41.11532
G1 X26.071 Y200.11 E41.14595
G1 X25.224 Y199.748 E41.17659
G1 X24.412 Y199.314 E41.20721
G1 X23.641 Y198.812 E41.23781
G1 X22.916 Y198.244 E41.26844
G1 X22.243 Y197.615 E41.29908
G1 X21.628 Y196.931 E41.32967
G1 X21.074 Y196.196 E41.36029
G1 X20.586 Y195.415 E41.39092
G1 X20.167 Y194.595 E41.42154
G1 X19.821 Y193.742 E41.45216
G1 X19.551 Y192.862 E41.48277
G1 X19.358 Y191.961 E41.51342
G1 X19.244 Y191.048 E41.54402
G1 X19.213 Y190.477 E41.56304
G1 X19.204 Y190.144 E41.57412
G1 X19.2 Y189.858 E41.58364
G1 X19.201 Y30.331 E46.88953
G1 X19.21 Y29.666 E46.91165
G1 X19.262 Y28.746 E46.94229
G1 X19.394 Y27.835 E46.97291
G1 X19.605 Y26.939 E47.00353
G1 X19.892 Y26.064 E47.03416
G1 X20.255 Y25.218 E47.06477
G1 X20.689 Y24.406 E47.0954
G1 X21.192 Y23.635 E47.12602
G1 X21.761 Y22.911 E47.15664
G1 X22.389 Y22.239 E47.18723
G0 F6000 X22.781 Y22.417
G1 F1200 X23.462 Y21.824 E47.21727
G1 X24.194 Y21.294 E47.24733
G1 X24.969 Y20.831 E47.27735
G1 X25.782 Y20.438 E47.30739
G1 X26.627 Y20.118 E47.33744
G1 X27.496 Y19.875 E47.36745
G1 X28.384 Y19.709 E47.3975
G1 X29.523 Y19.613 E47.43552
G1 X29.844 Y19.604 E47.4462
G1 X30.13 Y19.6 E47.45571
G1 X189.493 Y19.6 E52.75614
G1 X190.337 Y19.611 E52.78422
G1 X191.239 Y19.664 E52.81427
G1 X192.132 Y19.796 E52.84429
G1 X193.01 Y20.007 E52.87433
G1 X193.866 Y20.295 E52.90437
G1 X194.693 Y20.657 E52.93439
G1 X195.485 Y21.092 E52.96445
G1 X196.236 Y21.594 E52.99449
G1 X196.939 Y22.161 E53.02453
G1 X197.589 Y22.788 E53.05457
G1 X198.181 Y23.47 E53.08461
G1 X198.711 Y24.201 E53.11464
G1 X199.173 Y24.977 E53.14467
G1 X199.566 Y25.79 E53.17471
G1 X199.884 Y26.635 E53.20474
G1 X200.127 Y27.505 E53.23478
G1 X200.292 Y28.393 E53.26482
G1 X200.387 Y29.523 E53.30254
G1 X200.396 Y29.843 E53.31319
G1 X200.4 Y30.13 E53.32273
G1 X200.399 Y189.59 E58.62639
G1 X200.39 Y190.317 E58.65058
G1 X200.339 Y191.219 E58.68062
G1 X200.208 Y192.113 E58.71068
G1 X199.999 Y192.991 E58.7407
G1 X199.713 Y193.848 E58.77074
G1 X199.352 Y194.676 E58.80079
G1 X198.92 Y195.468 E58.83079
G1 X198.419 Y196.22 E58.86085
G1 X197.853 Y196.924 E58.89089
G1 X197.228 Y197.575 E58.92091
G1 X196.547 Y198.169 E58.95096
G1 X195.816 Y198.7 E58.98101
G1 X195.042 Y199.164 E59.01103
G1 X194.229 Y199.558 E59.04108
G1 X193.385 Y199.878 E59.0711
G1 X192.515 Y200.123 E59.10116
G1 X191.628 Y200.289 E59.13117
G1 X190.477 Y200.387 E59.1696
G1 X190.156 Y200.396 E59.18028
G1 X189.87 Y200.4 E59.18979
G1 X30.375 Y200.399 E64.49461
G1 X29.677 Y200.39 E64.51783
G1 X28.776 Y200.339 E64.54785
G1 X27.882 Y200.207 E64.5779
G1 X27.004 Y199.998 E64.60792
G1 X26.147 Y199.711 E64.63798
G1 X25.32 Y199.35 E64.668
G1 X24.527 Y198.917 E64.69805
G1 X23.776 Y198.416 E64.72807
G1 X23.072 Y197.85 E64.75812
G1 X22.421 Y197.224 E64.78816
G1 X21.828 Y196.543 E64.81819
G1 X21.298 Y195.812 E64.84822
G1 X20.834 Y195.037 E64.87826
G1 X20.44 Y194.224 E64.90831
G1 X20.12 Y193.38 E64.93833
G1 X19.876 Y192.51 E64.96839
G1 X19.71 Y191.622 E64.99843
G1 X19.613 Y190.467 E65.03698
G1 X19.604 Y190.134 E65.04806
G1 X19.6 Y189.858 E65.05724
G1 X19.601 Y30.336 E70.36297
G1 X19.61 Y29.671 E70.38509
G1 X19.662 Y28.769 E70.41514
G1 X19.794 Y27.876 E70.44516
G1 X20.004 Y26.998 E70.47519
G1 X20.291 Y26.141 E70.50525
G1 X20.653 Y25.314 E70.53527
G1 X21.086 Y24.522 E70.5653
G1 X21.588 Y23.771 E70.59534
G1 X22.155 Y23.067 E70.62541
G1 X22.781 Y22.417 E70.65542
G1 F1500 E64.15542
;MESH:TXTPlate NL V6.stl
G0 F6000 X30.938 Y41
G0 X30.789 Y41.224
G0 X30.88 Y49.17
G0 X31.007 Y49.433
G0 X33.245 Y49.435
G0 X34.465 Y47.799
G0 X41.673 Y62.249
G0 X41.344 Y62.884
G0 X41.231 Y63.762
G0 X41.287 Y64.355
G0 X42.208 Y68.939
G0 X43.188 Y68.868
G0 X44.322 Y68.54
G0 X54.307 Y80.858
G0 X54.425 Y89.543
G0 X57.745 Y90.976
G0 X61.494 Y102.409
G0 X63.478 Y103.256
G0 X66.399 Y105.319
G0 X66.758 Y105.64
G0 X67.181 Y106.277
G0 X71.518 Y122.866
G0 X75.467 Y129.428
G0 X76.824 Y129.435
G0 X82.806 Y140.964
G0 X81.55 Y140.972
G0 X81.55 Y142.866
G0 X86.971 Y142.975
G0 X87.104 Y143.216
G0 X91.626 Y162.866
G0 X97.048 Y162.975
G0 X97.181 Y163.216
G0 X97.469 Y167.534
G0 X103.7 Y180.972
G0 X105.754 Y180.972
G0 X107.934 Y187.557
G0 X107.976 Y189.47
G0 X107.906 Y189.4
;TYPE:WALL-OUTER
G1 F1500 E70.65542
G1 F1200 X107.906 Y187.585 E70.71579
G1 X101.629 Y187.585 E70.92456
G1 X101.629 Y189.4 E70.98493
G1 X107.906 Y189.4 E71.1937
G1 F1500 E64.6937
G0 F6000 X107.976 Y189.47
G0 X107.934 Y187.557
G0 X105.796 Y187.484
G0 X105.726 Y187.414
G1 F1500 E71.1937
G1 F1200 X105.726 Y181 E71.40703
G1 X103.728 Y181 E71.47349
G1 X103.728 Y187.414 E71.68682
G1 X105.726 Y187.414 E71.75327
G1 F1500 E65.25327
G0 F6000 X105.796 Y187.484
G0 X105.975 Y179.487
G0 X105.875 Y179.487
G1 F1500 E71.75327
G1 F1200 X105.875 Y177.619 E71.8154
G1 X105.637 Y177.619 E71.82332
G1 X105.343 Y177.607 E71.8331
G1 X105.033 Y177.566 E71.8435
G1 X104.761 Y177.493 E71.85287
G1 X104.464 Y177.337 E71.86403
G1 X104.25 Y177.101 E71.87463
G1 X104.148 Y176.762 E71.8864
G1 X104.144 Y176.511 E71.89475
G1 X104.17 Y176.317 E71.90126
G1 X103.12 Y174.49 E71.97135
G1 X102.906 Y174.728 E71.98199
G1 X102.618 Y175.08 E71.99712
G1 X102.396 Y175.473 E72.01213
G1 X102.369 Y175.525 E72.01408
G1 X102.268 Y175.812 E72.0242
G1 X102.191 Y176.1 E72.03411
G1 X102.142 Y176.687 E72.05371
G1 X102.158 Y177.018 E72.06473
G1 X102.202 Y177.347 E72.07577
G1 X102.293 Y177.66 E72.08661
G1 X102.42 Y177.979 E72.09803
G1 X102.577 Y178.231 E72.1079
G1 X102.753 Y178.464 E72.11762
G1 X102.963 Y178.667 E72.12733
G1 X103.193 Y178.851 E72.13713
G1 X103.464 Y179.01 E72.14758
G1 X103.737 Y179.145 E72.15771
G1 X103.796 Y179.166 E72.15979
G1 X104.321 Y179.332 E72.1781
G1 X104.995 Y179.445 E72.20083
G1 X105.61 Y179.478 E72.22132
G1 X105.875 Y179.487 E72.23014
G0 F6000 X106.045 Y179.484
G1 F1200 X107.04 Y179.358 E72.2635
G1 X107.878 Y179.21 E72.2918
G1 X108.077 Y179.171 E72.29854
G1 X108.077 Y171 E72.57031
G1 X106.045 Y171 E72.6379
G1 X106.045 Y179.484 E72.92008
G1 F1500 E66.42008
G0 F6000 X105.945 Y179.484
G0 X105.903 Y177.591
G0 X104.131 Y176.091
G0 X104.218 Y176.042
G1 F1500 E72.92008
G1 F1200 X104.637 Y175.75 E72.93706
G1 X104.891 Y175.642 E72.94624
G1 X105.271 Y175.556 E72.9592
G1 X105.863 Y175.503 E72.97897
G1 X105.863 Y173.653 E73.0405
G1 X105.278 Y173.701 E73.06002
G1 X105.098 Y173.729 E73.06608
G1 X103.614 Y171 E73.1694
G1 X101.311 Y171 E73.246
G1 X104.218 Y176.042 E73.43957
G1 F1500 E66.93957
G0 F6000 X104.131 Y176.091
G0 X105.892 Y175.53
G0 X105.975 Y169.487
G0 X105.875 Y169.487
G1 F1500 E73.43957
G1 F1200 X105.875 Y167.619 E73.5017
G1 X105.637 Y167.619 E73.50962
G1 X105.343 Y167.607 E73.51941
G1 X105.033 Y167.566 E73.52981
G1 X104.761 Y167.493 E73.53917
G1 X104.464 Y167.337 E73.55033
G1 X104.25 Y167.101 E73.56093
G1 X104.148 Y166.762 E73.5727
G1 X104.144 Y166.511 E73.58105
G1 X104.17 Y166.317 E73.58756
G1 X103.12 Y164.49 E73.65765
G1 X102.906 Y164.728 E73.66829
G1 X102.618 Y165.08 E73.68342
G1 X102.396 Y165.473 E73.69843
G1 X102.369 Y165.525 E73.70038
G1 X102.268 Y165.812 E73.7105
G1 X102.191 Y166.1 E73.72042
G1 X102.142 Y166.687 E73.74001
G1 X102.158 Y167.018 E73.75103
G1 X102.202 Y167.347 E73.76207
G1 X102.293 Y167.66 E73.77291
G1 X102.42 Y167.979 E73.78433
G1 X102.577 Y168.231 E73.79421
G1 X102.753 Y168.464 E73.80392
G1 X102.963 Y168.667 E73.81363
G1 X103.193 Y168.851 E73.82343
G1 X103.464 Y169.01 E73.83388
G1 X103.737 Y169.145 E73.84401
G1 X103.796 Y169.166 E73.84609
G1 X104.321 Y169.332 E73.86441
G1 X104.995 Y169.445 E73.88714
G1 X105.61 Y169.478 E73.90762
G1 X105.875 Y169.487 E73.91644
G0 F6000 X106.045 Y169.484
G1 F1200 X107.04 Y169.358 E73.9498
G1 X107.878 Y169.21 E73.9781
G1 X108.077 Y169.171 E73.98485
G1 X108.077 Y161 E74.25661
G1 X106.045 Y161 E74.3242
G1 X106.045 Y169.484 E74.60638
G1 F1500 E68.10638
G0 F6000 X105.945 Y169.484
G0 X105.903 Y167.591
G0 X104.131 Y166.091
G0 X104.218 Y166.042
G1 F1500 E74.60638
G1 F1200 X104.637 Y165.75 E74.62336
G1 X104.891 Y165.642 E74.63254
G1 X105.271 Y165.556 E74.6455
G1 X105.863 Y165.503 E74.66527
G1 X105.863 Y163.653 E74.7268
G1 X105.278 Y163.701 E74.74633
G1 X105.098 Y163.729 E74.75238
G1 X103.614 Y161 E74.8557
G1 X101.311 Y161 E74.9323
G1 X104.218 Y166.042 E75.12588
G1 F1500 E68.62588
G0 F6000 X104.131 Y166.091
G0 X105.892 Y165.53
G0 X105.892 Y163.987
G0 X105.608 Y159.461
G0 X105.53 Y159.4
G1 F1500 E75.12588
G1 F1200 X103.445 Y150.963 E75.41493
G1 X101.424 Y151.005 E75.48217
G1 X103.579 Y159.4 E75.77044
G1 X105.53 Y159.4 E75.83533
G0 F6000 X106.037 Y159.4
G1 F1200 X108.098 Y151 E76.123
G1 X106.052 Y151 E76.19105
G1 X105.607 Y152.917 E76.25651
G1 X104.105 Y152.917 E76.30646
G1 X104.571 Y154.755 E76.36953
G1 X105.17 Y154.755 E76.38945
G1 X104.91 Y156.136 E76.43619
G1 X105.724 Y159.4 E76.54808
G1 X106.037 Y159.4 E76.55849
G1 F1500 E70.05849
G0 F6000 X106.098 Y159.478
G0 X111.841 Y162.976
G0 X111.911 Y162.906
G1 F1500 E76.55849
G1 F1200 X115.62 Y162.906 E76.68185
G1 X115.62 Y161 E76.74524
G1 X111.911 Y161 E76.8686
G1 X111.911 Y162.906 E76.932
G1 F1500 E70.432
G0 F6000 X111.841 Y162.976
G0 X112.765 Y166.297
G0 X112.835 Y166.227
G1 F1500 E76.932
G1 F1200 X115.62 Y166.227 E77.02463
G1 X115.62 Y164.275 E77.08955
G1 X112.835 Y164.275 E77.18218
G1 X112.835 Y166.227 E77.24711
G1 F1500 E70.74711
G0 F6000 X112.765 Y166.297
G0 X112.077 Y167.466
G0 X112.035 Y169.47
G0 X112.105 Y169.4
G1 F1500 E77.24711
G1 F1200 X115.62 Y169.4 E77.36401
G1 X115.62 Y167.494 E77.42741
G1 X112.105 Y167.494 E77.54432
G1 X112.105 Y169.4 E77.60771
G1 F1500 E71.10771
G0 F6000 X112.035 Y169.47
G0 X115.721 Y169.47
G0 X115.791 Y169.4
G1 F1500 E77.60771
G1 F1200 X117.766 Y169.4 E77.6734
G1 X117.766 Y161 E77.95279
G1 X115.791 Y161 E78.01847
G1 X115.791 Y169.4 E78.29786
G1 F1500 E71.79786
G0 F6000 X115.721 Y169.47
G0 X121.377 Y169.46
G0 X121.456 Y169.4
G1 F1500 E78.29786
G1 F1200 X123.646 Y169.4 E78.3707
G1 X124.79 Y164.739 E78.53033
G1 X124.014 Y161.381 E78.64496
G1 X123.703 Y161.373 E78.6553
G1 X121.456 Y169.4 E78.93255
G1 F1500 E72.43255
G0 F6000 X121.377 Y169.46
G0 X126.136 Y169.478
G0 X126.197 Y169.4
G1 F1500 E78.93255
G1 F1200 X128.375 Y169.4 E79.00499
G1 X126.026 Y161 E79.29509
G1 X124.111 Y161 E79.35878
G1 X126.197 Y169.4 E79.64665
G1 F1500 E73.14665
G0 F6000 X126.136 Y169.478
G0 X134.959 Y169.592
G0 X134.895 Y169.516
G1 F1500 E79.64665
G1 F1200 X134.895 Y167.522 E79.71298
G1 X134.519 Y167.343 E79.72683
G1 X134.265 Y167.132 E79.73781
G1 X134.195 Y167.034 E79.74181
G1 X134.057 Y166.799 E79.75088
G1 X133.917 Y166.402 E79.76488
G1 X133.825 Y166.031 E79.77759
G1 X133.78 Y165.617 E79.79144
G1 X133.766 Y165.199 E79.80535
G1 X133.778 Y164.76 E79.81996
G1 X133.819 Y164.354 E79.83353
G1 X133.911 Y163.961 E79.84696
G1 X134.041 Y163.57 E79.86066
G1 X134.175 Y163.334 E79.86969
G1 X134.408 Y163.08 E79.88115
G1 X134.517 Y163.017 E79.88534
G1 X134.895 Y162.847 E79.89913
G1 X134.895 Y160.886 E79.96435
